X: 10136
T: Din Tarrant's
R: polka
M: 2/4
K: Bminor
|:a>f df|AB/d/ e2|e/f/e/d/ cA|Bc df|
a>f df|AB/d/ e2|e/f/e/d/ cA|1 Bc df:|2 Bc d2||
|:dB gB|dB fe/d/|cA eA|c/B/A ce|
fb b>a|fb b>a|fa fe/d/|1 cA B>c:|2 d/c/A Bf||

